packages/components/bolt-icons/src/svgs/product/product/platform/case-management.svg

<?xml version="1.0" encoding="UTF-8" standalone="no"?>
<svg width="32px" height="32px" viewBox="0 0 32 32" version="1.1" xmlns="http://www.w3.org/2000/svg" xmlns:xlink="http://www.w3.org/1999/xlink">
    <!-- Generator: Sketch 47.1 (45422) - http://www.bohemiancoding.com/sketch -->
    <title>Icon/product/Platform/Case-Management</title>
    <desc>Created with Sketch.</desc>
    <defs></defs>
    <g id="Symbols" stroke="none" stroke-width="1" fill="none" fill-rule="evenodd">
        <g id="Icon/product/Platform/Case-Management" fill="#1F2555">
            <path d="M29.9995,27.0005667 C29.9995,28.1040483 29.1040149,28.9995333 27.9995333,28.9995333 L3.99993333,28.9995333 C2.89545174,28.9995333 1.99996667,28.1040483 1.99996667,27.0005667 L1.99996667,8.99986667 C1.99996667,7.89638506 2.89545174,7.00089999 3.99993333,7.00089999 L27.9995333,7.00089999 C29.1040149,7.00089999 29.9995,7.89638506 29.9995,8.99986667 L29.9995,27.0005667 Z M11.9998,4.00144998 C11.9998,3.44845919 12.4477925,2.99996667 12.9997833,2.99996667 L18.9996833,2.99996667 C19.5516741,2.99996667 19.9996667,3.44845919 19.9996667,4.00144998 L19.9996667,4.99993333 L18.9996833,4.99993333 L12.9997833,4.99993333 L11.9998,4.99993333 L11.9998,4.00144998 Z M27.9995333,4.99993333 L21.9996333,4.99993333 L21.9996333,1.99998333 C21.9996333,1.44799253 21.5516408,1 20.99965,1 L10.9998167,1 C10.4478259,1 9.99983334,1.44799253 9.99983334,1.99998333 L9.99983334,4.99993333 L3.99993333,4.99993333 C1.79097015,4.99993333 0,6.79090348 0,8.99986667 L0,27.0005667 C0,29.2095298 1.79097015,31 3.99993333,31 L27.9995333,31 C30.2084965,31 31.9994667,29.2095298 31.9994667,27.0005667 L31.9994667,8.99986667 C31.9994667,6.79090348 30.2084965,4.99993333 27.9995333,4.99993333 L27.9995333,4.99993333 Z" id="Page-1"></path>
        </g>
    </g>
</svg>

<svg id="b7f23ccb-728d-456a-b36f-f61d5da9f5a0" data-name="Layer 1" xmlns="http://www.w3.org/2000/svg" viewBox="0 0 32 30"><title>case-management</title><path id="b2f16f98-b45f-4cd4-8a2f-8a68feb84ba0" data-name="Page-1" d="M30,27a2,2,0,0,1-2,2H4a2,2,0,0,1-2-2V9A2,2,0,0,1,4,7H28a2,2,0,0,1,2,2ZM12,4a.94.94,0,0,1,1-1h6a.94.94,0,0,1,1,1V5H12ZM28,5H22V2a.94.94,0,0,0-1-1H11a.94.94,0,0,0-1,1V5H4A4,4,0,0,0,0,9V27a4,4,0,0,0,4,4H28a4,4,0,0,0,4-4V9a4,4,0,0,0-4-4Z" transform="translate(0 -1)" fill="#1f2555" fill-rule="evenodd"/></svg>
